public/images/sponsors/codersrank-h.svg

<svg width="258" height="39" fill="none" xmlns="http://www.w3.org/2000/svg"><defs/><path d="M71.3582 27.6877c-1.5063-1.5102-2.3539-3.555-2.358-5.688 0-2.122.846-4.162 2.358-5.687.7676-.7334 1.6731-1.3072 2.664-1.688.9966-.3834 2.0586-.5679 3.126-.543 1.6734-.0402 3.3198.4265 4.723 1.339 1.3703.8953 2.3921 2.2334 2.895 3.791h-4.646c-.2582-.5353-.6696-.9819-1.182-1.283-.5176-.305-1.1127-.4534-1.713-.427-.5769-.0315-1.154.0584-1.694.264-.5369.2037-1.0244.5193-1.43.926-.7324.9189-1.1318 2.0589-1.133 3.234 0 1.17.399 2.309 1.134 3.234.403.405.89.72 1.43.926.5397.2054 1.1165.2954 1.693.264.586.039 1.17-.087 1.684-.364.5106-.2744.9312-.6904 1.211-1.198h4.571c-.5028 1.5579-1.5246 2.8963-2.895 3.792-1.4033.9121-3.0497 1.3785-4.723 1.338-1.0546.0151-2.1022-.174-3.085-.557-.9772-.3804-1.8704-.9488-2.629-1.673h-.001zm17.294 0c-1.5066-1.5101-2.3547-3.5549-2.359-5.688 0-2.122.846-4.162 2.359-5.687 1.5826-1.4433 3.6482-2.2418 5.79-2.238 2.15 0 4.221.8 5.7898 2.238 1.506 1.5099 2.354 3.5543 2.358 5.687-.004 2.1331-.852 4.1779-2.359 5.688-1.5738 1.4602-3.6427 2.2699-5.7898 2.266-2.147.0039-4.2159-.8058-5.79-2.266h.001zm8.837-2.454c.7326-.9185 1.1323-2.0582 1.134-3.233 0-1.17-.4-2.308-1.134-3.234-.8205-.7845-1.9127-1.2213-3.048-1.219-1.14 0-2.234.438-3.047 1.22-.7325.9185-1.1323 2.0581-1.134 3.233 0 1.171.399 2.309 1.134 3.234.8204.7842 1.9121 1.221 3.047 1.219 1.14 0 2.235-.438 3.048-1.219v-.001zm13.1028-10.929c2.279-.087 4.507.6821 6.247 2.156.767.7176 1.379 1.5839 1.8 2.546.417.9557.633 1.9872.633 3.03 0 1.0428-.216 2.0743-.633 3.03-.421.9621-1.033 1.8284-1.8 2.546-1.736 1.4805-3.967 2.2506-6.247 2.156h-5.561v-15.464h5.561zm-1.752 12.64h1.752c.648.0371 1.297-.0634 1.903-.295.603-.2293 1.149-.5854 1.602-1.044.442-.4791.784-1.0415 1.007-1.6543.222-.6127.32-1.2636.288-1.9147.032-.6509-.066-1.3017-.288-1.9142-.223-.6126-.565-1.1748-1.007-1.6538-.453-.4587-.999-.8147-1.602-1.044-.606-.2313-1.255-.3315-1.903-.294h-1.752v9.814zm22.473-12.714v2.9h-5.714v3.345h5.104v2.9H125.6v3.568h5.714v2.9h-9.599v-15.613h9.598zm7.237 9.516v6.022h-3.885v-15.464h6.247c1.549-.0801 3.071.4242 4.266 1.413.486.418.874.933 1.137 1.51.263.578.395 1.204.387 1.836-.018.9307-.31 1.8354-.838 2.602-.663.9123-1.64 1.5475-2.743 1.784l3.885 6.32h-4.418l-3.58-6.023h-.458zm0-6.616v3.717h2.362c.253.01.505-.03.742-.12.236-.09.45-.226.63-.4.175-.178.312-.388.404-.617.091-.23.135-.475.128-.722.007-.2465-.037-.4918-.128-.721-.092-.2307-.23-.4406-.405-.617-.18-.1751-.395-.3113-.63-.4-.236-.0897-.488-.1305-.741-.12h-2.362zm16.608-.075c-.438-.0237-.87.1081-1.22.372-.159.138-.284.311-.363.505-.08.193-.111.402-.093.61-.003.2071.036.4128.114.6044.079.1917.195.3654.343.5106.32.31.712.539 1.143.67l1.523.445 1.676.52 1.524.744c.487.317.881.753 1.143 1.264.31.6.466 1.262.457 1.933-.006.6459-.16 1.2818-.45 1.859-.292.5814-.711 1.0896-1.226 1.487-1.226.9867-2.771 1.4891-4.343 1.412-1.548.0787-3.077-.3662-4.342-1.263-.546-.4201-.984-.9645-1.278-1.588-.291-.6184-.427-1.2982-.398-1.981h4.114c-.012.253.032.507.128.742.097.236.244.449.431.625.19.1759.414.3104.659.3951.245.0847.504.1177.762.0969.475.02.94-.14 1.296-.447.156-.1393.278-.312.357-.5051.079-.1931.113-.4016.1-.6099.008-.2077-.029-.4147-.107-.6071-.079-.1923-.198-.3655-.35-.5079-.326-.3058-.716-.5344-1.143-.669l-1.524-.446-1.676-.52-1.523-.744c-.49-.3082-.885-.7456-1.143-1.264-.248-.5866-.353-1.2239-.305-1.859-.023-.6714.116-1.3385.407-1.944.294-.6104.73-1.1417 1.27-1.55 1.202-.9133 2.681-1.3857 4.19-1.338 1.454-.066 2.892.3238 4.113 1.115.547.4201.985.9645 1.278 1.588.292.62.428 1.299.398 1.98h-4.19c-.028-.4696-.216-.9154-.533-1.263-.167-.1418-.362-.2479-.571-.3119-.21-.064-.431-.0844-.649-.0601h.001zm13.103 6.691v6.022h-3.885v-15.464h6.247c1.549-.0801 3.071.4242 4.266 1.413.486.418.874.933 1.137 1.51.263.578.395 1.204.387 1.836-.018.9307-.31 1.8354-.838 2.602-.663.9123-1.64 1.5475-2.743 1.784l3.885 6.32H172.3l-3.58-6.023h-.459zm0-6.616v3.717h2.362c.253.01.505-.03.742-.12.236-.09.45-.226.63-.4.175-.178.312-.388.404-.617.091-.23.135-.475.128-.722.007-.2465-.037-.4918-.128-.721-.092-.2307-.23-.4406-.405-.617-.18-.1751-.395-.3113-.63-.4-.236-.0897-.488-.1305-.741-.12h-2.362zm21.331 12.638l-.914-2.602h-5.714l-.914 2.602h-4.114l5.485-15.538h4.723l5.485 15.538h-4.037zm-5.638-5.501h3.733l-1.828-5.428-1.905 5.428zm22.018-10.037h3.885v15.538h-3.885l-6.476-9.813v9.813h-3.885v-15.538h3.885l6.476 9.814v-9.814zm11.121 15.538h-3.885v-15.464h3.885v6.766l5.257-6.766h5.104l-6.552 7.732 6.552 7.732h-4.952l-5.333-6.84-.076 6.84zm15.77-2.007c-.015.4633-.192.9067-.5 1.253-.312.3507-.734.5848-1.197.664-.465.0808-.944.0026-1.359-.222-.41-.2217-.732-.5785-.91-1.01-.175-.4271-.194-.9023-.054-1.342.141-.44.433-.82.827-1.076.396-.255.866-.3694 1.334-.3247.469.0446.909.2456 1.249.5707.201.194.359.426.464.682.105.256.154.53.146.805z" fill="#19223C"/><path d="M235.301 29.7686v-15.464h3.885v15.464h-3.885zm8.761-2.081c-1.506-1.5102-2.354-3.555-2.358-5.688 0-2.122.846-4.162 2.358-5.687 1.583-1.4433 3.648-2.2417 5.79-2.238 2.151 0 4.222.8 5.79 2.238 1.506 1.51 2.354 3.5543 2.358 5.687-.004 2.133-.851 4.1778-2.358 5.688-1.574 1.4602-3.643 2.2699-5.79 2.266-2.147.0039-4.216-.8058-5.79-2.266zm8.837-2.454c.733-.9185 1.133-2.0581 1.134-3.233 0-1.17-.399-2.308-1.134-3.234-.82-.7843-1.912-1.221-3.047-1.219-1.14 0-2.235.438-3.047 1.22-.732.9185-1.132 2.0581-1.134 3.233 0 1.171.399 2.309 1.134 3.234.821.7843 1.912 1.221 3.047 1.219 1.14 0 2.235-.438 3.047-1.219v-.001z" fill="#67A4AC"/><path d="M33.2502.0546214L2.14722 19.6346c-1.464997.886-2.1809966 1.878-2.14599661 2.977v2.98c.03500001 1.1.76799961 2.075 2.19999661 2.926l15.39298 8.885c.0914.0535.1934.0864.2989.0963.1054.0099.2117-.0034.3115-.039.0997-.0355.1905-.0924.266-.1668.0754-.0743.1336-.1642.1706-.2635l3.456-8.352-7.33-4.15c-.2113-.1096-.3889-.2744-.514-.477-.0937-.1522-.1561-.3216-.1836-.4982-.0276-.1766-.0196-.3569.0233-.5304.0429-.1736.1199-.3368.2266-.4802.1067-.1434.2409-.2642.3947-.3552l13.457-8.247L33.7202.427621c.0222-.063286.0242-.131904.0058-.196386-.0184-.064481-.0565-.121648-.1088-.1636136-.052-.0414489-.1159-.06508832-.1823-.06742911-.0665-.00234079-.1319.01674101-.1867.05442911h.002z" fill="#19223C"/><path d="M58.8002 10.9616l-15.182-9.20396c-.088-.05489-.1868-.09027-.2896-.10377-.1029-.01349-.2075-.00478-.3067.02554-.0992.03032-.1907.08156-.2685.15025-.0777.0687-.1398.15325-.1822.24798l-3.56 8.35196 7.225 4.31c.208.113.381.282.502.488.1213.2067.1852.442.1852.6815 0 .2396-.0639.4749-.1852.6815-.1199.2057-.2934.3751-.502.49l-13.561 7.98-5.76 13.407c-.0557.0637-.0843.1468-.0794.2314.0049.0845.0427.1637.1054.2206.0308.028.0668.0494.1059.0633.0392.0138.0807.0197.1221.0172.0415-.0024.082-.013.1193-.0313.0372-.0183.0705-.0439.0977-.0752l9.949-6.012 3.927 5.64c.0859.13.2024.2367.3393.3108.137.0742.29.1134.4457.1142h9.425c.1719.0006.3406-.0464.4874-.1357.1468-.0893.2661-.2174.3446-.3703.0808-.1532.119-.3253.1108-.4984-.0083-.173-.0628-.3407-.1578-.4856l-6.388-9.79 12.933-7.82c1.466-.887 2.199-1.88 2.199-2.98v-2.926c0-1.1-.733-2.092-2.2-2.979h-.001z" fill="#67A4AC"/></svg>

<svg width="258" height="39" viewBox="0 0 258 39" fill="none" xmlns="http://www.w3.org/2000/svg">
<path d="M71.3582 27.6877C69.8519 26.1775 69.0043 24.1327 69.0002 21.9997C69.0002 19.8777 69.8462 17.8377 71.3582 16.3127C72.1258 15.5793 73.0313 15.0055 74.0222 14.6247C75.0188 14.2413 76.0808 14.0568 77.1482 14.0817C78.8216 14.0415 80.468 14.5082 81.8712 15.4207C83.2415 16.316 84.2633 17.6541 84.7662 19.2117H80.1202C79.862 18.6764 79.4506 18.2298 78.9382 17.9287C78.4206 17.6237 77.8255 17.4753 77.2252 17.5017C76.6483 17.4702 76.0712 17.5601 75.5312 17.7657C74.9943 17.9694 74.5068 18.285 74.1012 18.6917C73.3688 19.6106 72.9694 20.7506 72.9682 21.9257C72.9682 23.0957 73.3672 24.2347 74.1022 25.1597C74.5052 25.5647 74.9922 25.8797 75.5322 26.0857C76.0719 26.2911 76.6487 26.3811 77.2252 26.3497C77.8112 26.3887 78.3952 26.2627 78.9092 25.9857C79.4198 25.7113 79.8404 25.2953 80.1202 24.7877H84.6912C84.1884 26.3456 83.1666 27.684 81.7962 28.5797C80.3929 29.4918 78.7465 29.9582 77.0732 29.9177C76.0186 29.9328 74.971 29.7437 73.9882 29.3607C73.011 28.9803 72.1178 28.4119 71.3592 27.6877H71.3582ZM88.6522 27.6877C87.1456 26.1776 86.2975 24.1328 86.2932 21.9997C86.2932 19.8777 87.1392 17.8377 88.6522 16.3127C90.2348 14.8694 92.3004 14.0709 94.4422 14.0747C96.5922 14.0747 98.6632 14.8747 100.232 16.3127C101.738 17.8226 102.586 19.867 102.59 21.9997C102.586 24.1328 101.738 26.1776 100.231 27.6877C98.6572 29.1479 96.5883 29.9576 94.4412 29.9537C92.2942 29.9576 90.2253 29.1479 88.6512 27.6877H88.6522ZM97.4892 25.2337C98.2218 24.3152 98.6215 23.1755 98.6232 22.0007C98.6232 20.8307 98.2232 19.6927 97.4892 18.7667C96.6687 17.9822 95.5765 17.5454 94.4412 17.5477C93.3012 17.5477 92.2072 17.9857 91.3942 18.7677C90.6617 19.6862 90.2619 20.8258 90.2602 22.0007C90.2602 23.1717 90.6592 24.3097 91.3942 25.2347C92.2146 26.0189 93.3063 26.4557 94.4412 26.4537C95.5812 26.4537 96.6762 26.0157 97.4892 25.2347V25.2337ZM110.592 14.3047C112.871 14.2177 115.099 14.9868 116.839 16.4607C117.606 17.1783 118.218 18.0446 118.639 19.0067C119.056 19.9624 119.272 20.9939 119.272 22.0367C119.272 23.0795 119.056 24.111 118.639 25.0667C118.218 26.0288 117.606 26.8951 116.839 27.6127C115.103 29.0932 112.872 29.8633 110.592 29.7687H105.031V14.3047H110.592ZM108.84 26.9447H110.592C111.24 26.9818 111.889 26.8813 112.495 26.6497C113.098 26.4204 113.644 26.0643 114.097 25.6057C114.539 25.1266 114.881 24.5642 115.104 23.9514C115.326 23.3387 115.424 22.6878 115.392 22.0367C115.424 21.3858 115.326 20.735 115.104 20.1225C114.881 19.5099 114.539 18.9477 114.097 18.4687C113.644 18.01 113.098 17.654 112.495 17.4247C111.889 17.1934 111.24 17.0932 110.592 17.1307H108.84V26.9437V26.9447ZM131.313 14.2307V17.1307H125.599V20.4757H130.703V23.3757H125.6V26.9437H131.314V29.8437H121.715V14.2307H131.313ZM138.55 23.7467V29.7687H134.665V14.3047H140.912C142.461 14.2246 143.983 14.7289 145.178 15.7177C145.664 16.1357 146.052 16.6507 146.315 17.2277C146.578 17.8057 146.71 18.4317 146.702 19.0637C146.684 19.9944 146.392 20.8991 145.864 21.6657C145.201 22.578 144.224 23.2132 143.121 23.4497L147.006 29.7697H142.588L139.008 23.7467H138.55ZM138.55 17.1307V20.8477H140.912C141.165 20.8577 141.417 20.8177 141.654 20.7277C141.89 20.6377 142.104 20.5017 142.284 20.3277C142.459 20.1497 142.596 19.9397 142.688 19.7107C142.779 19.4807 142.823 19.2357 142.816 18.9887C142.823 18.7422 142.779 18.4969 142.688 18.2677C142.596 18.037 142.458 17.8271 142.283 17.6507C142.103 17.4756 141.888 17.3394 141.653 17.2507C141.417 17.161 141.165 17.1202 140.912 17.1307H138.55ZM155.158 17.0557C154.72 17.032 154.288 17.1638 153.938 17.4277C153.779 17.5657 153.654 17.7387 153.575 17.9327C153.495 18.1257 153.464 18.3347 153.482 18.5427C153.479 18.7498 153.518 18.9555 153.596 19.1471C153.675 19.3388 153.791 19.5125 153.939 19.6577C154.259 19.9677 154.651 20.1967 155.082 20.3277L156.605 20.7727L158.281 21.2927L159.805 22.0367C160.292 22.3537 160.686 22.7897 160.948 23.3007C161.258 23.9007 161.414 24.5627 161.405 25.2337C161.399 25.8796 161.245 26.5155 160.955 27.0927C160.663 27.6741 160.244 28.1823 159.729 28.5797C158.503 29.5664 156.958 30.0688 155.386 29.9917C153.838 30.0704 152.309 29.6255 151.044 28.7287C150.498 28.3086 150.06 27.7642 149.766 27.1407C149.475 26.5223 149.339 25.8425 149.368 25.1597H153.482C153.47 25.4127 153.514 25.6667 153.61 25.9017C153.707 26.1377 153.854 26.3507 154.041 26.5267C154.231 26.7026 154.455 26.8371 154.7 26.9218C154.945 27.0065 155.204 27.0395 155.462 27.0187C155.937 27.0387 156.402 26.8787 156.758 26.5717C156.914 26.4324 157.036 26.2597 157.115 26.0666C157.194 25.8735 157.228 25.665 157.215 25.4567C157.223 25.249 157.186 25.042 157.108 24.8496C157.029 24.6573 156.91 24.4841 156.758 24.3417C156.432 24.0359 156.042 23.8073 155.615 23.6727L154.091 23.2267L152.415 22.7067L150.892 21.9627C150.402 21.6545 150.007 21.2171 149.749 20.6987C149.501 20.1121 149.396 19.4748 149.444 18.8397C149.421 18.1683 149.56 17.5012 149.851 16.8957C150.145 16.2853 150.581 15.754 151.121 15.3457C152.323 14.4324 153.802 13.96 155.311 14.0077C156.765 13.9417 158.203 14.3315 159.424 15.1227C159.971 15.5428 160.409 16.0872 160.702 16.7107C160.994 17.3307 161.13 18.0097 161.1 18.6907H156.91C156.882 18.2211 156.694 17.7753 156.377 17.4277C156.21 17.2859 156.015 17.1798 155.806 17.1158C155.596 17.0518 155.375 17.0314 155.157 17.0557H155.158ZM168.261 23.7467V29.7687H164.376V14.3047H170.623C172.172 14.2246 173.694 14.7289 174.889 15.7177C175.375 16.1357 175.763 16.6507 176.026 17.2277C176.289 17.8057 176.421 18.4317 176.413 19.0637C176.395 19.9944 176.103 20.8991 175.575 21.6657C174.912 22.578 173.935 23.2132 172.832 23.4497L176.717 29.7697H172.3L168.72 23.7467H168.262H168.261ZM168.261 17.1307V20.8477H170.623C170.876 20.8577 171.128 20.8177 171.365 20.7277C171.601 20.6377 171.815 20.5017 171.995 20.3277C172.17 20.1497 172.307 19.9397 172.399 19.7107C172.49 19.4807 172.534 19.2357 172.527 18.9887C172.534 18.7422 172.49 18.4969 172.399 18.2677C172.307 18.037 172.169 17.8271 171.994 17.6507C171.814 17.4756 171.599 17.3394 171.364 17.2507C171.128 17.161 170.876 17.1202 170.623 17.1307H168.261ZM189.592 29.7687L188.678 27.1667H182.964L182.05 29.7687H177.936L183.421 14.2307H188.144L193.629 29.7687H189.592ZM183.954 24.2677H187.687L185.859 18.8397L183.954 24.2677ZM205.972 14.2307H209.857V29.7687H205.972L199.496 19.9557V29.7687H195.611V14.2307H199.496L205.972 24.0447V14.2307ZM217.093 29.7687H213.208V14.3047H217.093V21.0707L222.35 14.3047H227.454L220.902 22.0367L227.454 29.7687H222.502L217.169 22.9287L217.093 29.7687ZM232.863 27.7617C232.848 28.225 232.671 28.6684 232.363 29.0147C232.051 29.3654 231.629 29.5995 231.166 29.6787C230.701 29.7595 230.222 29.6813 229.807 29.4567C229.397 29.235 229.075 28.8782 228.897 28.4467C228.722 28.0196 228.703 27.5444 228.843 27.1047C228.984 26.6647 229.276 26.2847 229.67 26.0287C230.066 25.7737 230.536 25.6593 231.004 25.704C231.473 25.7486 231.913 25.9496 232.253 26.2747C232.454 26.4687 232.612 26.7007 232.717 26.9567C232.822 27.2127 232.871 27.4867 232.863 27.7617Z" fill="#19223C"/>
<path d="M235.301 29.7686V14.3046H239.186V29.7686H235.301ZM244.062 27.6876C242.556 26.1774 241.708 24.1326 241.704 21.9996C241.704 19.8776 242.55 17.8376 244.062 16.3126C245.645 14.8693 247.71 14.0709 249.852 14.0746C252.003 14.0746 254.074 14.8746 255.642 16.3126C257.148 17.8226 257.996 19.8669 258 21.9996C257.996 24.1326 257.149 26.1774 255.642 27.6876C254.068 29.1478 251.999 29.9575 249.852 29.9536C247.705 29.9575 245.636 29.1478 244.062 27.6876ZM252.899 25.2336C253.632 24.3151 254.032 23.1755 254.033 22.0006C254.033 20.8306 253.634 19.6926 252.899 18.7666C252.079 17.9823 250.987 17.5456 249.852 17.5476C248.712 17.5476 247.617 17.9856 246.805 18.7676C246.073 19.6861 245.673 20.8257 245.671 22.0006C245.671 23.1716 246.07 24.3096 246.805 25.2346C247.626 26.0189 248.717 26.4556 249.852 26.4536C250.992 26.4536 252.087 26.0156 252.899 25.2346V25.2336Z" fill="#67A4AC"/>
<path d="M33.2502 0.0546214L2.14722 19.6346C0.682223 20.5206 -0.0337766 21.5126 0.00122339 22.6116V25.5916C0.0362234 26.6916 0.769223 27.6666 2.20122 28.5176L17.5942 37.4026C17.6856 37.4561 17.7876 37.489 17.8931 37.4989C17.9985 37.5088 18.1048 37.4955 18.2046 37.4599C18.3043 37.4244 18.3951 37.3675 18.4706 37.2931C18.546 37.2188 18.6042 37.1289 18.6412 37.0296L22.0972 28.6776L14.7672 24.5276C14.5559 24.418 14.3783 24.2532 14.2532 24.0506C14.1595 23.8984 14.0971 23.729 14.0696 23.5524C14.042 23.3758 14.05 23.1955 14.0929 23.022C14.1358 22.8484 14.2128 22.6852 14.3195 22.5418C14.4262 22.3984 14.5604 22.2776 14.7142 22.1866L28.1712 13.9396L33.7202 0.427621C33.7424 0.364335 33.7444 0.295717 33.726 0.231235C33.7076 0.166754 33.6695 0.109587 33.6172 0.0676214C33.5652 0.0261725 33.5013 0.00253308 33.4349 0.00019229C33.3684 -0.0021485 33.303 0.0169333 33.2482 0.0546214H33.2502Z" fill="#19223C"/>
<path d="M58.8002 10.9616L43.6182 1.75764C43.5302 1.70275 43.4314 1.66737 43.3286 1.65387C43.2257 1.64038 43.1211 1.64909 43.0219 1.67941C42.9227 1.70973 42.8312 1.76097 42.7534 1.82966C42.6757 1.89836 42.6136 1.98291 42.5712 2.07764L39.0112 10.4296L46.2362 14.7396C46.4442 14.8526 46.6172 15.0216 46.7382 15.2276C46.8595 15.4343 46.9234 15.6696 46.9234 15.9091C46.9234 16.1487 46.8595 16.384 46.7382 16.5906C46.6183 16.7963 46.4448 16.9657 46.2362 17.0806L32.6752 25.0606L26.9152 38.4676C26.8595 38.5313 26.8309 38.6144 26.8358 38.699C26.8407 38.7835 26.8785 38.8627 26.9412 38.9196C26.972 38.9476 27.008 38.969 27.0471 38.9829C27.0863 38.9967 27.1278 39.0026 27.1692 39.0001C27.2107 38.9977 27.2512 38.9871 27.2885 38.9688C27.3257 38.9505 27.359 38.9249 27.3862 38.8936L37.3352 32.8816L41.2622 38.5216C41.3481 38.6516 41.4646 38.7583 41.6015 38.8324C41.7385 38.9066 41.8915 38.9458 42.0472 38.9466H51.4722C51.6441 38.9472 51.8128 38.9002 51.9596 38.8109C52.1064 38.7216 52.2257 38.5935 52.3042 38.4406C52.385 38.2874 52.4232 38.1153 52.415 37.9422C52.4067 37.7692 52.3522 37.6015 52.2572 37.4566L45.8692 27.6666L58.8022 19.8466C60.2682 18.9596 61.0012 17.9666 61.0012 16.8666V13.9406C61.0012 12.8406 60.2682 11.8486 58.8012 10.9616H58.8002Z" fill="#67A4AC"/>
</svg>
